X: 7
T: Crooked Road To Dublin, The
Z: RobSheldrick
S: https://thesession.org/tunes/227#setting51858
R: reel
M: 4/4
L: 1/8
K: Gmaj
[GG,]3F2 GAF|(3GAG FG Ad(3cBA|GBAG (3EFG Ag|fd (3cBA dBcA|
{A}GFGA (3GFD FA|GF[GG,]B Ad(3cBA|GBAG (3EFG Ag|fd (3cBA dBcA||
d3g fgaf|dgga2gfe|dg~g2 fgag|fd (3ddd dBcA|
[dD]3g fgaf|dg~g2 aega|(3aag af gbag|fd (3dd^c dB=cA|
[DG,]BB [DG,] (3ccc [DG,] c|B[DG,] B[DG,] Ad(3cBA|[GG,]BAG (3EFG [AD]g|fd (3cBA [dD]Bc[AD]|
(3GGF [GG,]A FAFA|[GG,]F[GG,]B A[dD](3cBA|[GG,]BAG (3EFG [AD]g|fd (3cBA dBcA|
d3g fgaf|dgga2gfe|dg~g2 fgag|fd (3ddd dBcA|
[dD]3g fgaf|dg~g2 aega|(3aag af gbag|fd (3dd^c dB=cA||

